app/dist/common/images/idexx-laboratories.svg

<svg height="18" width="18" xmlns="http://www.w3.org/2000/svg"><path d="m0 0h18v18h-18z" fill="#f44144"/><g fill="#fff"><path d="m10.574 10-1.574-2h-3.5l-2.5 2.981h2.595l1.658-2.237.938 1.256zm.926-6.002-2.5-.002-1.73 2.29-1.665-2.288h-2.605l2.5 3.002h3.5zm3 10.002-2.5-3h-3.5l-2.5 3h2.5l1.7-2.163 1.8 2.163z"/><path d="m14.173 7.004-2.53-.001-1.67 2.209-.598-.712-2.328-.022 1.144 1.52h3.57z"/></g></svg>

<!-- by TradingView --><svg width="18" height="18" xmlns="http://www.w3.org/2000/svg"><path fill="#F44144" d="M0 0h18v18H0z"/><path d="M10.574 10L9 8H5.5L3 10.981h2.595l1.658-2.237L8.191 10h2.383zM11.5 3.998L9 3.996l-1.73 2.29-1.665-2.288H3L5.5 7H9l2.5-3.002zM14.5 14L12 11H8.5L6 14h2.5l1.7-2.163L12 14h2.5z" fill="#fff"/><path d="M14.173 7.004l-2.53-.001-1.67 2.209-.598-.712-2.328-.022 1.144 1.52h3.57l2.412-2.994z" fill="#fff"/></svg>
